X:1
T:Title
%%score { ( 1 3 5 ) | ( 2 4 ) }
L:1/8
Q:1/4=100
M:6/8
K:C
V:1 treble nm="Grand Piano"
V:3 treble 
V:5 treble 
V:2 bass 
V:4 bass 
V:1
 [EG][EG][EG] [EG][CE][DF] | [EG]3 [Gc]3 | cBc dcF | [CEG]6 | [CEG][DF][DF] [DF][EG][FA] | %5
w: Chas.~H.~Gabriel * * * * *|||||
 [FB]3 [B,FA]3 | [CEG]3 [G,DF]3 | [G,CE]6 | [EG][EG][EG] [EG][CE][DF] | [DG]3 [Ge]3 | %10
w: |||||
 [Gc][GB][Gc] [Gd][Gc][GB] | [FA]6 | [Ac][^GB][Bd] [Ac][=GB]A | G3 [GA]3 | [FB]3 [FG]3 | [Ec]6 | %16
w: ||||||
 [EG][EG][EG] .[EG]3 | [EG][EG][EG] .[CEG]3 | [FG][FG][FG] [FG]2 [FG] | [EG][EG][EG] .[EG]3 | %20
w: ||||
 [^FA][FA][FA] [DF]2 [DF] | [DG][DG][DG] [B,DG]2 [G,DG] | [DG]2 [DG] [C^F][CF][A,CF] | %23
w: |||
 G3- [B,FG]3 | .[Ge]6 | c6 | .[Ac]6 | [EG]6 | A3 z3 | B3 z3 | e3 d2 d | [Ec]6 |] %32
w: |||||||||
V:2
 [C,C][C,C][C,C] [C,C][C,G,][C,G,] | [C,C]3 [E,C]3 | [F,A,F][F,^G,F][F,A,F] [F,A,F][F,A,F][F,C] | %3
 C,6 | G,,[G,,G,][G,,G,] [G,,G,][G,,G,][G,,G,] | [G,,G,]3 G,,3 | G,,3 G,,3 | C,6 | %8
 [C,C][C,C][C,C] [C,C][C,G,][C,G,] | [C,C]3 [C,C]3 | [E,C][E,C][E,C] [E,C][E,C][E,C] | [F,C]6 | %12
 [F,C][F,C][F,C] [F,C][F,C][F,CF] | [E,C]3 [_E,C]3 | [D,G,]3 [G,B,]3 | [C,G,]6 | C,C,C, C,E,A, | %17
 C,C,C, .C,3 | z3 .G,3 | C,C,C, .C,3 | D,D,D, D,2 C, | B,,B,,B,, G,,2 B,, | D,2 D, D,D,D, | %23
 z2 D .G,,3 | [C,C]C,C, C,[K:treble]DF | [C,G,]C,C, [C,G,][D,G,][E,C] | [F,C]F,F, z[K:treble] FA, | %27
 C[K:bass]G,E, .C,3 | [F,CF][F,C][E,^C] [D,D]2 [D,D] | [G,DG][G,D][K:bass][F,D] [E,C]2 [F,C] | %30
 [G,CG]3 [G,B,F]2 [G,F] | [C,G,]6 |] %32
V:3
 x6 | x6 | x6 | x6 | x6 | x6 | x6 | x6 | x6 | x6 | x6 | x6 | x6 | x6 | x6 | x6 | .G,6 | G,3 z3 | %18
 .B,6 | C6 | C3 A,3 | x6 | B,3 .A,3 | .[G,B,]3 z3 | z CC CBd | E-[G,E-][G,E] EFG | z CC z A[Fc] | %27
 z CC .C3 | z FG [^FA]2 [FA] | z GG [Gc]2 [Ad] | x6 | x6 |] %32
V:4
 x6 | x6 | x6 | x6 | x6 | x6 | x6 | x6 | x6 | x6 | x6 | x6 | x6 | x6 | x6 | x6 | x6 | x6 | %18
 D,D,D, z A,G, | x6 | x6 | x6 | x6 | G,,3 z3 | x4[K:treble] x2 | x6 | z3 .F,3[K:treble] | %27
 x[K:bass] x5 | x6 | x2[K:bass] x4 | x6 | x6 |] %32
V:5
 x6 | x6 | x6 | x6 | x6 | x6 | x6 | x6 | x6 | x6 | x6 | x6 | x6 | x6 | x6 | x6 | x6 | x6 | x6 | %19
 x6 | x6 | x6 | x6 | x6 | x6 | x6 | z3 C3 | x6 | x6 | x6 | x6 | x6 |] %32

